X: 79
T:Peggy's Bend
C:Bill Quern 
M:6/8
R:Jig
L:1/8
K:G
|"G"gdB GBd|"Dm"cAG=F2F|D=FA cBA|"G"BAB cBc|
"G"gdB GBd|"Dm"cAG =F2F|D=FA cBA|"G"BGGG3:|
|:"F"DE=F DE=F|"F"DE=F"G"G2A|"G"BAB cBc|"G"dBG"F"=F2D|
"F"DE=F DE=F|"F"DE=F "G"G2A|"G"BAB "F"cA=F|"G"G3GG2:|
